!!!COM: Beethoven, Ludwig van
!!!CDT: 1770///-1827///
!!!OTL: Piano Sonata no. 11 in B-flat major
!!!OPS: 22
!!!OMV: 1
!!!OMD: Allegro con brio
**kern	**kern	**dynam
*staff2	*staff1	*staff1/2
*>[A,A,B]	*>[A,A,B]	*>[A,A,B]
*>norep[A,B]	*>norep[A,B]	*>norep[A,B]
*>A	*>A	*>A
*clefF4	*clefG2	*clefG2
*k[b-e-]	*k[b-e-]	*k[b-e-]
*B-:	*B-:	*B-:
*M4/4	*M4/4	*M4/4
*MM132	*MM132	*MM132
*	*^	*
4r	(4d'/	16B-\LL	p
.	.	16A\	.
.	.	16B-\	.
.	.	16F\JJ	.
=1	=1	=1	=1
4BBB-'/ 4BB-'/	4f'/	4d\	.
4BBB-'/ 4BB-'/	4d'/)	4B-'\	.
2r	4r	4r	.
.	(4d'/	16B-\LL	.
.	.	16A\	.
.	.	16B-\	.
.	.	16F\JJ	.
=2	=2	=2	=2
4BBB-'/ 4BB-'/	4f'/	4d\	.
4BBB-'/ 4BB-'/	4d'/)	4B-'\	.
2r	4r	4r	.
.	4d/	16B-\LL	.
.	.	16A\	.
.	.	16B-\	.
.	.	16F\JJ	<
=3	=3	=3	=3
1r	4f'/	16d\LL	.
.	.	16c#\	.
.	.	16d\	.
.	.	16B-\JJ	.
.	4b-'/	16f\LL	.
.	.	16en\	.
.	.	16f\	.
.	.	16d\JJ	.
.	4dd'/	16b-\LL	.
.	.	16a\	.
.	.	16b-\	.
.	.	16f\JJ	.
.	4ff'/	16dd\LL	.
.	.	16cc#\	.
.	.	16dd\	.
.	.	16b-\JJ	.
*	*v	*v	*
=4	=4	=4
16BB-\LL	2.bb-\	.
16D\	.	.
16F\	.	.
16B-\JJ	.	.
16BB-\LL	.	.
16D\	.	.
16F\	.	.
16B-\JJ	.	.
16BB-\LL	.	.
16D\	.	.
16F\	.	.
16B-\JJ	.	.
16BB-\LL	(16aa\LL	.
16D\	16bb-\	.
16F\	16ccc\	.
16B-\JJ	16bb-\JJ	.
=5	=5	=5
16BB-\LL	8aa\L	.
16E-\	.	.
16G\	8gg\	.
16B-\JJ	.	.
16BB-\LL	8ff\	.
16E-\	.	.
16G\	8ee-\J	.
16B-\JJ	.	.
16BB-\LL	8dd\L	.
16E-\	.	.
16F\	8cc\	.
16A\JJ	.	.
16BB-\LL	8gg\	.
16E-\	.	.
16F\	8ff\J	.
16A\JJ	.	.
=6	=6	=6
16BB-\LL	4ee-\	.
16D\	.	.
16F\	.	.
16B-\JJ	.	.
16BB-\LL	4dd\)	.
16D\	.	.
16F\	.	.
16B-\JJ	.	.
16BB-\LL	4r	.
16D\	.	.
16F\	.	.
16A-\JJ	.	.
16BB-\LL	(16an\LL	<
16D\	16b-\	.
16F\	16cc\	.
16A-\JJ	16b-\JJ	.
=7	=7	=7
16BB-\LL	8a-/L	.
16E-\	.	.
16G\	8g/	.
16E-\JJ	.	.
16BB-\LL	8f/	.
16E-\	.	.
16G\	8e-/J	.
16E-\JJ	.	.
16BB-\LL	8d/L	.
16C\	.	.
16E-\	8c/	.
16F\JJ	.	.
16BB-\LL	8e-/	.
16C\	.	.
16E-\	8An/J)	.
16F\JJ	.	.
=8	=8	=8
4BB-'/	8B-'/L	f
.	(16d/L	.
.	16c/JJ	.
16BB-/LL	16B-/LL	.
16AA/	16A/	.
16BB-/	16B-/	.
&(16GG'/JJ&)	16G/JJ	.
4FF'/	8F'/L)	.
.	(16g/L	.
.	16f/JJ	.
16E-\LL	16e-/LL	.
16D\	16d/	.
16E-\	16e-/	.
&(16C\JJ&)	16c/JJ	.
=9	=9	=9
4BB-'/	8B-'/L)	.
.	(16dd/L	.
.	16cc/JJ	.
(16B-\LL	16b-/LL	.
16A\	16a/	.
16B-\	16b-/	.
16G\JJ)	16g/JJ)	.
4F'\	8f'\L	.
.	(16gg\L	.
.	16ff\JJ	.
(16e-\LL	16ee-\LL	.
16d\	16dd\	.
16e-\	16ee-\	.
16c\JJ)	16cc\JJ)	.
*clefG2	*	*
=10	=10	=10
(8B-/L	(8b-\L	.
16c/L	16cc\L	.
16d/JJ	16dd\JJ	.
16e-/LL	16ee-\LL	.
16f/	16ff\	.
16g/	16gg\	.
16a/JJ)	16aa\JJ)	.
(16b-\LL	(16bb-\LL	.
16a\	16aa\	.
16b-\	16bb-\	.
16cc\JJ)	16ccc\JJ)	.
(16dd\LL	(16ddd\LL	.
16cc\	16ccc\	.
16dd\	16ddd\	.
16een\JJ)	16eeen\JJ)	.
=11	=11	=11
4ff'\	4fff'\	.
*clefF4	*	*
4F'\	4f'/	f
4r	2r	.
16BB-/LL	.	.
16AA/	.	.
16BB-/	.	.
16FF/JJ	.	.
=12	=12	=12
16D\LL	1r	.
16C#\	.	.
16D\	.	.
16BB-\JJ	.	.
16F\LL	.	.
16En\	.	.
16F\	.	.
16D\JJ	.	.
16B-\LL	.	.
16A\	.	.
16B-\	.	.
16F\JJ	.	.
16d\LL	.	.
16c#\	.	.
16d\	.	.
16B-\JJ	.	.
=13	=13	=13
4..f\	2r	.
16e-\	.	.
8.d\L	([2ff^\	.
16c\k	.	.
8.B-\	.	.
&(16A-\Jk&)	.	.
=14	=14	=14
*	*^	*
2G\	2ff/]	4r	.
.	.	4bn\	p
4A-\	4ee-/	4cc\	.
4F#\	[4dd/	4an\	.
=15	=15	=15	=15
4G\	4dd/]	4b-\	.
4En\	2cc/	4g\	.
4F\	.	4a\	.
4D\	4bn/)	&(4f\&)	.
*	*v	*v	*
=16	=16	=16
8CC\ 8C\L	16cc/LL	.
.	16en/ 16g/	.
8c\	16cc/	.
.	16e/ 16g/JJ	.
8c\	16cc/LL	.
.	16e/ 16g/	.
8c\J	16dd/	.
.	16e/ 16g/JJ	.
8c\L	16een/LL	.
.	16g/ 16b-/	.
8c\	16cc/	.
.	16g/ 16b-/JJ	.
8c\	16dd/LL	.
.	16g/ 16b-/	.
8c\J	16ee/	.
.	16g/ 16b-/JJ	.
=17	=17	=17
8c\L	16ff/LL	.
.	16f/ 16a/	.
8c\	16ff/	.
.	16f/ 16a/JJ	.
8c\	16ff/LL	.
.	16f/ 16a/	.
8c\J	16een/	.
.	16f/ 16a/JJ	.
8c\L	16dd/LL	.
.	16f/ 16a-/	.
8c\	16cc/	.
.	16f/ 16a-/JJ	.
8c\	16bn/LL	.
.	16f/ 16a-/	.
8c\J	16dd/	.
.	16f/ 16a-/JJ	.
=18	=18	=18
8CC\ 8C\L	16cc/LL	.
.	16en/ 16g/	.
8c\	16bn/	.
.	16e/ 16g/JJ	.
8c\	16cc/LL	.
.	16e/ 16g/	.
8c\J	16dd/	.
.	16e/ 16g/JJ	.
8c\L	16een/LL	.
.	16g/ 16b-/	.
8c\	16cc/	.
.	16g/ 16b-/JJ	.
8c\	16dd/LL	.
.	16g/ 16b-/	.
8c\J	16ee/	.
.	16g/ 16b-/JJ	.
=19	=19	=19
8c\L	16ff/LL	.
.	16f/ 16a/	.
8c\	16ff/	.
.	16f/ 16a/JJ	.
8c\	16ff/LL	.
.	16f/ 16a/	.
8c\J	16een/	.
.	16f/ 16a/JJ	.
8c\L	16dd/LL	.
.	16f/ 16a-/	.
8c\	16cc/	.
.	16f/ 16a-/JJ	.
8c\	16bn/LL	.
.	16f/ 16a-/	.
8c\J	16dd/	.
.	16f/ 16a-/JJ	.
=20	=20	=20
8C\L	16cc/LL	.
.	16en/ 16g/	.
8c\	16cc/	.
.	16e/ 16g/JJ	.
8c\	16bn/LL	.
.	16f/ 16a-/	.
8c\J	16dd/	.
.	16f/ 16a-/JJ	.
8C\L	16cc/LL	.
.	16e/ 16g/	.
8c\	16cc/	.
.	16e/ 16g/JJ	.
8c\	16b/LL	.
.	16f/ 16a-/	.
8c\J	16dd/	.
.	16f/ 16a-/JJ	.
=21	=21	=21
4C/	16en/ 16g/ 16cc/	.
.	16c/LL	.
.	16d/	.
.	16e/JJ	>
4r	16f/LL	.
.	16g/	.
.	16an/	.
.	16bn/JJ	.
2r	16cc/LL	.
.	16b/	.
.	16cc/	.
.	16b/JJ	.
.	16cc/LL	.
.	16b/	.
.	16cc/	.
.	16b/JJ	.
=22	=22	=22
16r	2a\ (2cc\	pp
16F\LL	.	.
16G\	.	.
16A\JJ	.	.
16B-\LL	.	.
16c\	.	.
16d\	.	.
16en\JJ	.	.
16f\LL	4a\	.
16e\	.	.
16f\	.	.
16e\JJ	.	.
16f\LL	4ff\	.
16e\	.	.
16f\	.	.
16e\JJ	.	.
=23	=23	=23
16f\LL	4a\ 4cc\	.
16en\	.	.
16f\	.	.
16e\JJ	.	.
16f\LL	4ff\ 4aa\	.
16e\	.	.
16f\	.	.
16e\JJ	.	.
16f\LL	4a\ 4cc\	.
16e\	.	.
16f\	.	.
16e\JJ	.	.
16f\LL	4aa\ 4ccc\)	.
16e\	.	.
16f\	.	.
16e\JJ	.	.
=24	=24	=24
16f\LL	2a\ (2cc\	.
16F\	.	.
16G\	.	.
16A\JJ	.	.
16B-\LL	.	.
16c\	.	.
16d\	.	.
16en\JJ	.	.
16f\LL	4a\	.
16e\	.	.
16f\	.	.
16e\JJ	.	.
16f\LL	4ff\	.
16e\	.	.
16f\	.	.
16e\JJ	.	.
=25	=25	=25
16f\LL	4a\ 4cc\	.
16en\	.	.
16f\	.	.
16e\JJ	.	.
16f\LL	4ff\ 4aa\	.
16e\	.	.
16f\	.	.
16e\JJ	.	.
16f\LL	4a\ 4cc\	.
16e\	.	.
16f\	.	.
16e\JJ	.	.
16f\LL	4aa\ 4ccc\)	.
16e-\	.	.
16f\	.	.
16e-\JJ	.	.
=26	=26	=26
*	*^	*
16c#\LL	2dd/ 2ff/	2a\ 2cc\	.
16d\	.	.	.
16c#\	.	.	.
16d\JJ	.	.	.
16Bn\LL	.	.	.
16cn\	.	.	.
16B\	.	.	.
16c\JJ	.	.	.
16G#\LL	2r	2r	.
16A\	.	.	.
16G#\	.	.	.
16A\JJ	.	.	.
16E#\LL	.	.	.
16F#\	.	.	.
16E#\	.	.	.
16F#\JJ	.	.	.
*	*v	*v	*
=27	=27	=27
16C#/LL	4r	.
16D/	.	.
16C#/	.	.
16D/JJ	.	.
16BBn/LL	(4ff#\	<
16Cn/	.	.
16BB/	.	.
16C/JJ	.	.
16GG#/LL	4aa\	.
16AA/	.	.
16GG#/	.	.
16AA/JJ	.	.
16EE#/LL	[4ccc\)	.
16FF#/	.	.
16EE#/	.	.
16FF#/JJ	.	.
=28	=28	=28
*	*^	*
16CC#/LL	(4ccc/]	2ff#\	.
16DD/	.	.	.
16CC#/	.	.	.
16DD/JJ	.	.	.
16CC#/LL	[4bb-/	.	.
16DD/	.	.	.
16CC#/	.	.	.
16DD/JJ	.	.	.
16DD/LL	4bb-/]	[4gg\	.
16EE-/	.	.	.
16DD/	.	.	.
16EE-/JJ	.	.	.
16DD#/LL	4gg/_	4dd-\	.
16EEn/	.	.	.
16DD#/	.	.	.
16EE/JJ	.	.	.
=29	=29	=29	=29
16EEn/LL	4gg/]	2cc\	f
16FF/	.	.	.
16EE/	.	.	.
16FF/JJ	.	.	.
16EE/LL	4ff/ 4aa/	.	.
16FF/	.	.	.
16EE/	.	.	.
16FF/JJ	.	.	.
16AAA/LL	4ddn/ 4gg/	4b-\	.
16BBB-/	.	.	.
16AAA/	.	.	.
16BBB-/JJ	.	.	.
16BBBn/LL	4b-/ 4een/	4g\	.
16CC/	.	.	.
16BBB/	.	.	.
16CC/JJ	.	.	.
=30	=30	=30	=30
4FFF/	4ff/)	&(4f\&) 4a\	.
4r	4r	4r	.
2F\ 2A\	(2f/ 2a/	2r	.
*	*v	*v	*
=31	=31	=31
4D\ 4F\	4d/ 4f/	.
4BB-\ &(4D\&)	4B-/) 4d/	.
4.G\ 4.B-\	(4.g/ 4.b-/	.
8F\ 8A\	8f/ 8a/	.
=32	=32	=32
4En\ 4G\	4en/ 4g/	.
4C\ &(4E\&)	4c/) 4e/	.
2A\ 2c\	(2a/ 2cc/	.
=33	=33	=33
4F\ 4A\	4f/ 4a/	.
4D\ &(4F\&)	4d/) 4f/	.
4.B-\ 4.d\	4.b-\ (4.dd\	.
8A\ 8c\	8a\ 8cc\	.
=34	=34	=34
4G\ 4B-\	4g/ 4b-/	.
4En\ &(4G\&)	4en/ 4g/)	.
4.B-\ 4.g\	4.b-\ (4.gg\	.
8A\ 8f\	8a\ 8ff\	.
=35	=35	=35
4.G\ 4.en\	4.g\ 4.een\	f
8F\ &(8d\&)	8f\ 8dd\)	.
4En\ 4c\	4en/ (4cc/	.
4D\ 4F\	4B-/ 4b-/	.
=36	=36	=36
4C#\ 4En\	4A/ 4a/	>
4AA\ 4E\	4c#/ 4g/	.
4BB-\ 4D\	4d/ 4f/	.
&(4BBn\&)	4F/ 4G/ 4d/)	pp
=37	=37	=37
*^	*	*
4r	2C\	1r	.
4F/ 4A/ 4c/	.	.	.
4r	2CC\	.	.
4C/ 4En/ 4G/ 4c/	.	.	.
=38	=38	=38	=38
4.F\ 4.A\	2FFF/	2r	.
2r	.	.	.
.	4r	8r	.
.	.	4f/ 4a/	.
.	4C/ 4F/ 4A/	.	.
8F\ 8A\	.	8f/ 8a/	.
*v	*v	*	*
=39	=39	=39
8D\ 8F\	8r	.
8r	8d/ 8f/	.
8BB-/ 8D/	8r	.
8r	8B-/ 8d/	.
4.G\ (4.B-\	8r	.
.	(4g/ 4b-/	.
8F\ 8A\	8f/) 8a/	.
=40	=40	=40
8En\ 8G\)	8r	.
8r	8en/ 8g/	.
8C\ 8E\	8r	.
8r	8c/ 8e/	.
4.A\ 4.c\	8r	.
.	4a/ 4cc/	.
8A\ 8c\	8a/ 8cc/	.
=41	=41	=41
8F\ 8A\	8r	.
8r	8f/ 8a/	.
8D\ 8F\	8r	.
8r	8d/ 8f/	.
4.B-\ (4.d\	8r	.
.	4b-\ (4dd\	.
8A\ 8c\	8a\ 8cc\)	.
=42	=42	=42
8G\ 8B-\)	8r	.
8r	8g/ 8b-/	.
8En\ 8G\	8r	.
8r	8en/ 8g/	.
4.B-\ (4.g\	8r	.
.	4b-\ 4gg\	.
8A\ 8f\)	8a\ &(8ff\&)	.
=43	=43	=43
4.G\ (4.en\	8r	.
.	4g\ (4een\	.
8F\ 8d\)	8f/ 8dd/)	.
8En\ 8c\	8r	.
8r	8en/ 8cc/	.
8D\ 8F\	8r	.
8r	8B-/ 8b-/	.
=44	=44	=44
1C# 1En 1G	(16a/LL	<
.	16A/	.
.	16c#/	.
.	16en/JJ	.
.	16a\LL	.
.	16cc#\	.
.	16een\	.
.	16gg#\JJ	.
.	16aa\LL	.
.	16gg#\	.
.	16aa\	.
.	16gg#\JJ	.
.	16aa\LL	.
.	16ee\	.
.	16cc#\	.
.	16a\JJ)	.
=45	=45	=45
1D 1F	16r	.
.	(16A/LL	.
.	16d/	.
.	16f/JJ	.
.	16a\LL	.
.	16dd\	.
.	16ff\	.
.	16gg#\JJ	.
.	16aa\LL	.
.	16gg#\	.
.	16aa\	.
.	16gg#\JJ	.
.	16aa\LL	.
.	16ff\	.
.	16dd\	.
.	16a\JJ)	.
=46	=46	=46
1BBn 1D 1F	16r	.
.	(16A-/LL	.
.	16Bn/	.
.	16d/JJ	.
.	16f\LL	.
.	16a-\	.
.	16bn\	.
.	16dd\JJ	.
.	16ff\LL	.
.	16dd\	.
.	16aa-\	.
.	16ff\JJ	.
.	16dd\LL	.
.	16b\	.
.	16a-\	.
.	16f\JJ)	.
=47	=47	=47
[2BB-\ [2D-\ [2En\ [2G\	16r	.
.	(16en/LL	mf
.	16g/	.
.	16b-/JJ	.
.	16dd-\LL	.
.	16een\	.
.	16gg\	.
.	16bb-\JJ	.
8BB-\] 8D-\] 8E\] 8G\L]	16ddd-\LL	.
.	16eeen\)	.
8BB-'\ 8C'\ 8G'\	16een\	.
.	16eee\JJ	.
8BB-'\ 8C'\ 8G'\	16ee\LL	.
.	16eee\	.
8BB-'\ 8C'\ 8G'\J	16ee\	.
.	16eee\JJ	.
=48	=48	=48
4AA/ 4C/ 4F/	16ff\LL	f
.	16fff\	.
.	16een\	.
.	16eeen\JJ	.
8r	16ff\LL	.
.	16fff\	.
8EEn'/ 8C'/	16b-\	.
.	16bb-\JJ	.
8FF'/ 8C'/L	16a\LL	.
.	16aa\	.
8BB-'/ 8C'/	16ee\	.
.	16eee\JJ	.
8AA'/ 8C'/	16ff\LL	.
.	16fff\	.
8EE'/ 8C'/J	16b-\	.
.	16bb-\JJ	.
=49	=49	=49
8FF'/ 8C'/L	16a\LL	.
.	16aa\	.
8BB-'/ 8C'/	16een\	.
.	16eeen\JJ	.
8AA'/ 8C'/	16ff\LL	.
.	16fff\	.
8EEn'/ 8C'/J	16b-\	.
.	16bb-\JJ	.
8FF'/ 8C'/L	16a\LL	.
.	16aa\	.
8BB-'/ 8C'/	16ee\	.
.	16eee\JJ	.
8AA'/ 8C'/	16ff\LL	.
.	16fff\	.
8EE'/ 8C'/J	16b-\	.
.	16bb-\JJ	.
=50	=50	=50
2FF/	16a\LL	.
.	16aa\	.
.	16g\	.
.	16gg\JJ	.
.	16f\LL	.
.	16ff\	.
.	16en\	.
.	16een\JJ	.
2DD/	16d/LL	.
.	16dd/	.
.	16c/	.
.	16cc/JJ	.
.	16B-/LL	.
.	16b-/	.
.	16A/	.
.	16a/JJ	.
=51	=51	=51
*^	*	*
2r	2BBB-\	16G\LL	.
.	.	16g\	.
.	.	16F\	.
.	.	16f\JJ	.
.	.	16En\LL	.
.	.	16en\	.
.	.	16D\	.
.	.	16d\JJ	<
16C/LL	2CC\	2r	.
16c/	.	.	.
16BB-/	.	.	.
16B-/JJ	.	.	.
16AA/LL	.	.	.
16A/	.	.	.
16GG/	.	.	.
16G/JJ	.	.	.
=52	=52	=52	=52
8F/L	8FFF\ 8FF\	1r	p
16En/L	(8BB-\L	.	.
16c/JJ	.	.	.
16F/LL	8AA\	.	.
16c/	.	.	.
16B-/	8EEn\J	.	.
16c/JJ	.	.	.
16A/LL	8FF\L	.	.
16c/	.	.	.
16E/	8BB-\	.	.
16c/JJ	.	.	.
16F/LL	8AA\	.	.
16c/	.	.	.
16B-/	8EE\J	.	.
16c/JJ	.	.	.
=53	=53	=53	=53
16A/LL	8FF\L	1r	.
16c/	.	.	.
16En/	8BB-\	.	.
16c/JJ	.	.	.
16F/LL	8AA\	.	.
16c/	.	.	.
16B-/	8EEn\J	.	.
16c/JJ	.	.	.
&(16A/LL&)	8EE\L	.	.
16c/	.	.	.
16C#/	8GG\	.	.
16c#/JJ	.	.	.
16D/LL	8FF\	.	.
16d/	.	.	.
16E/	8EE\J	.	.
16en/JJ	.	.	.
*v	*v	*	*
=54	=54	=54
8DD\L	16E-\LL	.
.	16f\	.
8CCn\	16E#\	.
.	16f#\JJ	.
8BBB-\	16G/LL	.
.	16g/	.
8AAA\J)	16A/	.
.	16a/JJ	.
[2GGG\	16B-/LL	ff
.	16b-/	.
.	16c/	.
.	16cc/JJ	.
.	16d/LL	.
.	16dd/	.
.	16c/	.
.	16cc/JJ	.
=55	=55	=55
2GGG\]	16B-/LL	.
.	16b-/	.
.	16A/	.
.	16a/JJ	.
.	16G\LL	.
.	16g\	.
.	16F\	.
.	16f\JJ	.
2CC\	16En\LL	.
.	16en\	.
.	16D\	.
.	16d\JJ	.
.	16C\LL	.
.	16c\	.
.	16E\	.
.	16e\JJ	.
=56	=56	=56
*	*^	*
16FFF/LL	2r	4F/ 4f/	.
16FF/	.	.	.
16FFF/	.	.	.
16FF/JJ	.	.	.
16FFF/LL	.	4r	.
16FF/	.	.	.
16FFF/	.	.	.
16FF/JJ	.	.	.
*	*v	*v	*
*	*clefF4	*clefF4
*	*^	*
16FFF/LL	2A/ 2c/	(4.A\	p
16FF/	.	.	.
16FFF/	.	.	.
16FF/JJ	.	.	.
16FFF/LL	.	.	.
16FF/	.	.	.
16FFF/	.	8F\)	.
16FF/JJ	.	.	.
=57	=57	=57	=57
16FFF/LL	2B-/ 2d-/	(4.B-\	.
16FF/	.	.	.
16FFF/	.	.	.
16FF/JJ	.	.	.
16FFF/LL	.	.	.
16FF/	.	.	.
16FFF/	.	8A-\)	.
16FF/JJ	.	.	.
16FFF/LL	4B-/ 4c/	(8G\L	.
16FF/	.	.	.
16FFF/	.	8F\	.
16FF/JJ	.	.	.
16FFF/LL	4B-/ 4c/	8G\	.
16FF/	.	.	.
16FFF/	.	8En\J)	.
16FF/JJ	.	.	.
=58	=58	=58	=58
16EEE-/LL	4.c/	4.F\ 4.An\	.
16FF/	.	.	.
16EEE-/	.	.	.
16FF/JJ	.	.	.
16FFF/LL	.	.	.
16FF/	.	.	.
16FFF/	8r	8r	.
16FF/JJ	.	.	.
*	*v	*v	*
*	*clefG2	*clefG2
*	*^	*
16FFF/LL	(4.a/	2A\ 2c\	.
16FF/	.	.	.
16FFF/	.	.	.
16FF/JJ	.	.	.
16FFF/LL	.	.	.
16FF/	.	.	.
16FFF/	8f/)	.	.
16FF/JJ	.	.	.
=59	=59	=59	=59
16FFF/LL	(4.b-/	2B-\ 2d-\	.
16FF/	.	.	.
16FFF/	.	.	.
16FF/JJ	.	.	.
16FFF/LL	.	.	.
16FF/	.	.	.
16FFF/	8a-/)	.	.
16FF/JJ	.	.	.
16FFF/LL	(8g-/L	4B-\ 4d-\	.
16FF/	.	.	.
16FFF/	8f/	.	.
16FF/JJ	.	.	.
16FFF/LL	8g-/	4B-\ 4d-\	.
16FF/	.	.	.
16FFF/	8en/J)	.	.
16FF/JJ	.	.	.
=60	=60	=60	=60
16FFF/LL	4.f/	4.A\ 4.c\	.
16FF/	.	.	.
16FFF/	.	.	.
16FF/JJ	.	.	.
16FFF/LL	.	.	.
16FF/	.	.	.
16FFF/	8r	8r	.
16FF/JJ	.	.	.
16FFF/LL	(8gn/L	4B-\ 4d-\	.
16FF/	.	.	.
16FFF/	8f/	.	.
16FF/JJ	.	.	.
16FFF/LL	8g/	4B-\ 4d-\	.
16FF/	.	.	.
16FFF/	8en/J)	.	.
16FF/JJ	.	.	.
=61	=61	=61	=61
16FFF/LL	4.f/	4.A\ 4.c\	.
16FF/	.	.	.
16FFF/	.	.	.
16FF/JJ	.	.	.
16FFF/LL	.	.	.
16FF/	.	.	.
16FFF/	8r	8r	.
16FF/JJ	.	.	.
16FFF/LL	(8g-/L	4B-\ 4d-\	pp
16FF/	.	.	.
16FFF/	8f/	.	.
16FF/JJ	.	.	.
16FFF/LL	8g-/	4B-\ 4d-\	.
16FF/	.	.	.
16FFF/	8en/J)	.	.
16FF/JJ	.	.	.
*	*v	*v	*
=62	=62	=62
4.FFF/ 4.FF/	4.F/ 4.f/	ff
8GGG'/ 8GG'/	8Gn'/ 8gn'/	.
4.AAA'/ 4.AA'/	4.A'/ 4.a'/	.
8BBB-'/ 8BB-'/	8B-'/ 8b-'/	.
=63	=63	=63
4.CC/ 4.C/	4.c/ 4.cc/	.
8DD'/ 8D'/	8d'\ 8dd'\	.
8EEn'/ 8En'/L	8en'\ 8een'\L	.
8FF'/ 8F'/	8f'\ 8ff'\	.
8GG'/ 8G'/	8g'\ 8gg'\	.
8AA'/ 8A'/J	8a'\ 8aa'\J	.
=64	=64	=64
4.BB-\ 4.B-\	4.b-\ 4.bb-\	.
8AA'\ 8A'\	8a'\ 8aa'\	.
4.GG\ 4.G\	4.g\ 4.gg\	.
8FF'\ 8F'\	8f'\ 8ff'\	.
=65	=65	=65
4.EEn/ 4.En/	4.en/ 4.een/	.
8DD'/ 8D'/	8d'/ 8dd'/	.
8CC'/ 8C'/L	8c'/ 8cc'/L	.
8BBB-'/ 8BB-'/	8B-'/ 8b-'/	.
8AAA'/ 8AA'/	8A'/ 8a'/	.
8GGG'/ 8GG'/J	8G'/ 8g'/J	.
=66	=66	=66
4FFF'/ 4FF'/	4F'/ 4f'/	.
4C'\ 4G'\ 4B-'\	(16en/LL	p
.	16d#/	.
.	16e/	.
.	16c/JJ)	.
4F'\ 4A'\	4f'/	.
*clefG2	*	*
4c'/ 4g'/ 4b-'/	(16een\LL	.
.	16dd#\	.
.	16ee\	.
.	16cc\JJ)	.
=67	=67	=67
4f'/ 4a'/	4ff'\	.
4r	4r	.
*clefF4	*	*
4C'\ 4c'\	4een'\ 4gg'\ 4bb-'\ 4ccc'\ 4eeen'\	ff
4r	4r	.
=68	=68	=68
4FF'/ 4F'/	4ff'\ 4aa'\ 4ccc'\ 4fff'\	.
4r	4r	.
4r	4r	.
=:|!	=:|!	=:|!
*>B	*>B	*>B
4r	(16c/LL	p
.	16Bn/	.
.	16c/	.
.	16A/JJ	.
=69	=69	=69
4r	4f'/)	.
16C/LL	4r	p
16BBn/	.	.
16C/	.	.
16AA/JJ	.	.
&(4F'/&)	4r	.
4r	(16c/LL	.
.	16Bn/	.
.	16c/	.
.	16A/JJ	.
=70	=70	=70
4r	4f'/)	.
(16C/LL	4r	.
16BBn/	.	.
16C/	.	.
16AA/JJ	.	.
4F'/)	4r	.
(16C/LL	(16c/LL	<
16BB/	16Bn/	.
16C/	16c/	.
16AA/JJ)	16A/JJ)	.
=71	=71	=71
4.FF\ 4.F\	4.f/	ff
8GG'\ 8G'\	8g'/	.
4.AA\ 4.A\	4.a/	.
8BB-'\ 8B-'\	8b-'/	.
=72	=72	=72
4.C\ 4.c\	4.cc\	.
8D'\ 8d'\	8dd'\	.
8E-'\ 8e-'\L	8ee-'\L	.
8D'\ 8d'\	8dd'\	.
8C'\ 8c'\	8cc'\	.
8D'\ 8d'\J	8dd'\J	.
=73	=73	=73
4.E-\ (4.e-\	(4.ee-\	.
8D'\ 8d'\)	8dd'\)	.
8C'\ 8c'\L	8cc'\L	.
8BB-'\ 8B-'\	8b-'\	.
8AA'\ 8A'\	8a'\	.
8BB-'\ 8B-'\J	8b-'\J	.
=74	=74	=74
4.C\ (4.c\	(4.cc\	.
8BB-'\ 8B-'\)	8b-'\)	.
8AA'\ 8A'\L	8a'/L	.
8GG'\ 8G'\	8g'/	.
8FF#'\ 8F#'\	8f#'/	.
8EEn'\ 8En'\J	8en'/J	.
=75	=75	=75
*	*^	*
16DD\LL	2d/	2r	.
16D\	.	.	.
16DD\	.	.	.
16D\JJ	.	.	.
16DD\LL	.	.	.
16D\	.	.	.
16DD\	.	.	.
16D\JJ	.	.	.
16DD\LL	(4.f#/	2A\ 2c\	.
16D\	.	.	.
16DD\	.	.	.
16D\JJ	.	.	.
16DD\LL	.	.	.
16D\	.	.	.
16DD\	8d/)	.	.
16D\JJ	.	.	.
=76	=76	=76	=76
16DD\LL	(4.g/	2B-\	.
16D\	.	.	.
16DD\	.	.	.
16D\JJ	.	.	.
16DD\LL	.	.	.
16D\	.	.	.
16DD\	8fn/)	.	.
16D\JJ	.	.	.
16DD\LL	(8e-/L	4G\ 4B-\	.
16D\	.	.	.
16DD\	8d/	.	.
16D\JJ	.	.	.
16DD\LL	8e-/	4G\ 4B-\	.
16D\	.	.	.
16DD\	8c#/J)	.	.
16D\JJ	.	.	.
=77	=77	=77	=77
16DD\LL	2r	4.F#/ 4.A/ 4.d/	.
16D\	.	.	.
16DD\	.	.	.
16D\JJ	.	.	.
16DD\LL	.	.	.
16D\	.	.	.
16DD\	.	8r	.
16D\JJ	.	.	.
16DD\LL	(4.ff#/	2a\ 2cc\	.
16D\	.	.	.
16DD\	.	.	.
16D\JJ	.	.	.
16DD\LL	.	.	.
16D\	.	.	.
16DD\	8dd/)	.	.
16D\JJ	.	.	.
=78	=78	=78	=78
16DD\LL	(4.gg/	2g\ 2b-\	.
16D\	.	.	.
16DD\	.	.	.
16D\JJ	.	.	.
16DD\LL	.	.	.
16D\	.	.	.
16DD\	8ffn/)	.	.
16D\JJ	.	.	.
16DD\LL	(8ee-/L	4g\ 4b-\	>
16D\	.	.	.
16DD\	8dd/	.	.
16D\JJ	.	.	.
16DD\LL	8ee-/	4g\ 4b-\	.
16D\	.	.	.
16DD\	8cc#/J)	.	.
16D\JJ	.	.	.
=79	=79	=79	=79
16DD\LL	4.f#/ 4.a/ 4.dd/	2r	.
16D\	.	.	.
16DD\	.	.	.
16D\JJ	.	.	.
16DD\LL	.	.	.
16D\	.	.	.
16DD\	8r	.	.
16D\JJ	.	.	.
16DD\LL	(8een/L	4g\ 4b-\	.
16D\	.	.	.
16DD\	8dd/	.	.
16D\JJ	.	.	.
16DD/LL	8ee/	4g\ 4b-\	.
16D/	.	.	.
16DD/	8cc#/J)	.	.
16D/JJ	.	.	.
=80	=80	=80	=80
16DD/LL	4.dd/	4.f#\ 4.a\	.
16D/	.	.	.
16DD/	.	.	.
16D/JJ	.	.	.
16DD/LL	.	.	.
16D/	.	.	.
16DD/	8r	8r	.
16D/JJ	.	.	.
16DD/LL	(8ee-/L	4g\ 4b-\	pp
16D/	.	.	.
16DD/	8dd/	.	.
16D/JJ	.	.	.
16DD/LL	8ee-/	4g\ 4b-\	.
16D/	.	.	.
16DD/	8cc#/J)	.	ff
16D/JJ	.	.	.
*	*v	*v	*
=81	=81	=81
4.DD/	4f#/ 4a/ 4dd/	f
.	4r	.
8EEn'/	.	.
4.FF#/ 4.D/	2r	.
8GG'/ 8En'/	.	.
=82	=82	=82
4.AA/ 4.C/ 4.F#/	4r	.
.	8ee-\L	ff
8BB-'\ 8D'\ 8G'\	8dd'\J	.
8F#'\ 8A'\L	8cc'\L	.
8G'\ 8B-'\	8b-'\	.
8A'\ 8c'\	8a'\	.
8B-'\ 8d'\J	8g'\J	.
=83	=83	=83
4c'\ 4e-'\	4f#'/	.
4r	(16aa\LL	.
.	16gg#\	.
.	16aa\	.
.	16ff#\JJ	.
2r	16ccc\LL	.
.	16bbn\	.
.	16ccc\	.
.	16aa\JJ	.
.	16eee-\LL	.
.	16ddd\	.
.	16ccc\	.
.	16bb-\JJ	.
=84	=84	=84
1r	16aa\LL	.
.	16bb-\	.
.	16ccc\	.
.	16bb-\JJ	.
.	16aa\LL	.
.	16gg\	.
.	16ff#\	.
.	16gg\JJ	.
.	16aa\LL	.
.	16gg\	.
.	16ff#\	.
.	16ee-\JJ	.
.	16dd\LL	.
.	16cc\	.
.	16bn\	.
.	16cc\JJ)	.
=85	=85	=85
4.GG/	4bn\	ff
.	4r	.
8AA'/	.	.
4.BBn\ 4.G\	2r	.
8C'\ 8A'\	.	.
=86	=86	=86
4.D\ 4.F\ 4.Bn\	4r	.
.	8aa-'\L	ff
8E-'\ 8G'\ 8c'\	8gg'\J	.
*clefG2	*	*
8Bn'/ 8d'/L	8ffn'\L	.
8c'/ 8e-'/	8ee-'\	.
8d'/ 8f'/	8dd'\	.
8e-'/ 8g'/J	8cc'\J	.
=87	=87	=87
4f'/ 4a-'/	4bn'\	.
4r	(16dd\LL	.
.	16cc#\	.
.	16dd\	.
.	16b\JJ	.
2r	16ff\LL	.
.	16een\	.
.	16ff\	.
.	16dd\JJ	.
.	16aa-\LL	.
.	16gg\	.
.	16ff\	.
.	16ee-\JJ	.
=88	=88	=88
1r	16dd\LL	.
.	16ee-\	.
.	16ff\	.
.	16ee-\JJ	.
.	16dd\LL	.
.	16cc\	.
.	16bn\	.
.	16cc\JJ	.
.	16dd\LL	.
.	16cc\	.
.	16b\	.
.	16a-\JJ	.
.	16g/LL	.
.	16f/	.
.	16en/	.
.	16f/JJ)	.
*clefF4	*	*
=89	=89	=89
4.CC/	4en/	ff
.	4r	.
8DD'/	.	.
4.EE-/ 4.C/	2r	.
8FF'/ 8D'/	.	.
=90	=90	=90
4.GG/ 4.BB-/ 4.En/	4r	.
.	8dd-'\L	ff
8AA-'/ 8C'/ 8F'/	8cc'\J	.
8En'\ 8G'\L	8b-'/L	.
8F'\ 8A-'\	8a-'/	.
8G'\ 8B-'\	8g'/	.
8A-'\ 8c'\J	8f'/J	.
=91	=91	=91
4B-'\ 4d-'\	4en'/	.
4r	(16gg\LL	.
.	16ff#\	.
.	16gg\	.
.	16een\JJ	.
2r	16bb-\LL	.
.	16aa\	.
.	16bb-\	.
.	16gg\JJ	.
.	16ddd-\LL	.
.	16ccc\	.
.	16ddd-\	.
.	16ccc\JJ)	.
=92	=92	=92
*^	*	*
4r	1BB-	(16ddd-\LL	.
.	.	16bb-\	.
.	.	16gg\	.
.	.	16een\JJ	.
[4D-/	.	16bb-\LL	.
.	.	16gg\	.
.	.	16ee\	.
.	.	16dd-\JJ	.
4D-/_ [4En/	.	16gg\LL	.
.	.	16ee\	.
.	.	16dd-\	.
.	.	16b-\JJ	.
4D-/] 4E/] 4G/	.	16ee\LL	.
.	.	16dd-\	.
.	.	16b-\	.
.	.	16g\JJ)	.
=93	=93	=93	=93
4r	1AA-	4r	.
[4C/	.	(16ff\LL	.
.	.	16een\	.
.	.	16ff\	.
.	.	16cc\JJ	.
4C/_ [4F/	.	16aa-\LL	.
.	.	16gg\	.
.	.	16aa-\	.
.	.	16ff\JJ	.
4C/] 4F/] 4A-/	.	16ccc\LL	.
.	.	16bbn\	.
.	.	16ccc\	.
.	.	16aa-\JJ)	.
=94	=94	=94	=94
4r	1AA-	(16fff\LL	.
.	.	16ccc\	.
.	.	16aa-\	.
.	.	16ff\JJ	.
[4C/	.	16ccc\LL	.
.	.	16aa-\	.
.	.	16ff\	.
.	.	16cc\JJ	.
4C/_ [4F/	.	16aa-\LL	.
.	.	16ff\	.
.	.	16cc\	.
.	.	16a-\JJ	.
4C/] 4F/] 4A-/	.	16ff\LL	.
.	.	16cc\	.
.	.	16a-\	.
.	.	16f\JJ)	.
=95	=95	=95	=95
4r	1GG	4r	.
[4D/	.	(16ff\LL	.
.	.	16een\	.
.	.	16ff\	.
.	.	16dd\JJ	.
4D/_ [4F/	.	16bbn\LL	.
.	.	16aa#\	.
.	.	16bb\	.
.	.	16ff\JJ	.
4D/] 4F/] 4G/	.	16ddd\LL	.
.	.	16ccc#\	.
.	.	16ddd\	.
.	.	16bbn\JJ)	.
=96	=96	=96	=96
4r	1GG	(16fff\LL	.
.	.	16ddd\	.
.	.	16bbn\	.
.	.	16ff\JJ	.
[4BBn/	.	16ddd\LL	.
.	.	16bb\	.
.	.	16ff\	.
.	.	16dd\JJ	.
4BB/_ [4D/	.	16bb\LL	.
.	.	16ff\	.
.	.	16dd\	.
.	.	16bn\JJ	.
4BB/] 4D/] 4G/	.	16ff\LL	.
.	.	16dd\	.
.	.	16b\	.
.	.	16f\JJ)	.
=97	=97	=97	=97
4r	1GG	4r	.
[4C/	.	(16ee-\LL	.
.	.	16dd\	.
.	.	16ee-\	.
.	.	16cc\JJ	.
4C/_ [4E-/	.	16gg\LL	.
.	.	16ff#\	.
.	.	16gg\	.
.	.	16ee-\JJ	.
4C/] 4E-/] 4G/	.	16ccc\LL	.
.	.	16bbn\	.
.	.	16ccc\	.
.	.	16gg\JJ)	.
=98	=98	=98	=98
4r	1GG-	(16eee-\LL	.
.	.	16ccc\	.
.	.	16aan\	.
.	.	16ee-\JJ	.
[4C/	.	16ccc\LL	.
.	.	16aa\	.
.	.	16ee-\	.
.	.	16cc\JJ	.
4C/_ [4E-/	.	16aa\LL	.
.	.	16ee-\	.
.	.	16cc\	.
.	.	16a\JJ	.
4C/] 4E-/] 4G-/	.	16ee-\LL	.
.	.	16cc\	.
.	.	16a\	.
.	.	16e-\JJ)	.
=99	=99	=99	=99
4r	1FF	4r	.
[4C/	.	(16ee-\LL	.
.	.	16dd\	.
.	.	16ee-\	.
.	.	16cc\JJ	.
4C/_ [4E-/	.	16aa\LL	.
.	.	16gg#\	.
.	.	16aa\	.
.	.	16ee-\JJ	.
4C/] 4E-/] 4F/	.	16ccc\LL	.
.	.	16bbn\	.
.	.	16ccc\	.
.	.	16aa\JJ)	.
=100	=100	=100	=100
4r	1FF	(16eee-\LL	.
.	.	16ccc\	.
.	.	16aa\	.
.	.	16ee-\JJ	.
[4AA/	.	16ccc\LL	.
.	.	16aa\	.
.	.	16ee-\	.
.	.	16cc\JJ	.
4AA/_ [4C/	.	16aa\LL	.
.	.	16ee-\	.
.	.	16cc\	.
.	.	16a\JJ	.
4AA/] 4C/] 4F/	.	16ee-\LL	.
.	.	16cc\	.
.	.	16a\	.
.	.	16e-\JJ)	p
=101	=101	=101	=101
4r	1FF	4r	.
[4BB-/	.	(16dd-\LL	.
.	.	16cc\	.
.	.	16dd-\	.
.	.	16b-\JJ	.
4BB-/_ [4D-/	.	16ff\LL	.
.	.	16een\	.
.	.	16ff\	.
.	.	16dd-\JJ	.
4BB-/] 4D-/] 4F/	.	16bb-\LL	.
.	.	16aa\	.
.	.	16bb-\)	.
.	.	16ff\JJ	.
=102	=102	=102	=102
4r	1FF-	(16ddd-\LL	.
.	.	16bb-\	.
.	.	16gg\	.
.	.	16dd-\JJ	.
[4BB-/	.	16bb-\LL	.
.	.	16gg\	.
.	.	16dd-\	.
.	.	16b-\JJ	.
4BB-/_ [4D-/	.	16gg\LL	.
.	.	16dd-\	.
.	.	16b-\	.
.	.	16g\JJ	.
4BB-/] 4D-/] 4F-/	.	16dd-/LL	.
.	.	16b-/	.
.	.	16g/	.
.	.	16d-/JJ)	.
=103	=103	=103	=103
4r	1EE-	4r	.
[4BB-/	.	(16dd-\LL	.
.	.	16cc\	.
.	.	16dd-\	.
.	.	16b-\JJ	.
4BB-/_ [4D-/	.	16gg\LL	.
.	.	16ff#\	.
.	.	16gg\	.
.	.	16dd-\JJ	.
4BB-/] 4D-/] 4E-/	.	16bb-\LL	.
.	.	16aa\	.
.	.	16bb-\	.
.	.	16gg\JJ)	.
=104	=104	=104	=104
4r	1EE-	16ddd-\LL	.
.	.	16bb-\	.
.	.	16gg\	.
.	.	16dd-\JJ	.
[4BB-/	.	16bb-\LL	>
.	.	16gg\	.
.	.	16dd-\	.
.	.	16b-\JJ	.
4BB-/_ [4D-/	.	16gg\LL	.
.	.	16dd-\	.
.	.	16b-\	.
.	.	16g\JJ	.
4BB-/] 4D-/] 4E-/	.	16dd-/LL	.
.	.	16b-/	.
.	.	16g/	.
.	.	16d-/JJ	.
*v	*v	*	*
=105	=105	=105
(4.EE-/	16b-/LL	p
.	16g/	.
.	16d-/	.
.	16B-/JJ	.
.	16g/LL	.
.	16d-/	.
8FF/	16B-/	.
.	16G/JJ	.
4.GG/	16e-/LL	.
.	16d-/	.
.	16B-/	.
.	16G/JJ	.
.	16e-/LL	.
.	16d-/	.
8AA-/)	16B-/	.
.	16G/JJ	.
=106	=106	=106
(4.BB-/	16e-/LL	.
.	16d-/	.
.	16B-/	.
.	16G/JJ	.
.	16e-/LL	.
.	16d-/	.
8C/	16B-/	.
.	16G/JJ	.
8D-/L	16e-/LL	.
.	16d-/	.
8C/	16B-/	.
.	16G/JJ	.
8BB-/	16e-/LL	.
.	16d-/	.
8AA-/J)	16B-/	.
.	16G/JJ	.
=107	=107	=107
(4.GG/	16e-/LL	.
.	16d-/	.
.	16B-/	.
.	16G/JJ	.
.	16e-/LL	.
.	16d-/	.
8AA-/	16B-/	.
.	16G/JJ	.
8BB-/L	16e-/LL	.
.	16d-/	.
8AA-/	16B-/	.
.	16G/JJ	.
8GG/	16e-/LL	.
.	16d-/	.
8FF/J)	16B-/	.
.	16G/JJ	.
=108	=108	=108
4EE-/	16e-/LL	.
.	16d-/	.
.	16B-/	.
.	16G/JJ	.
4r	16e-/LL	.
.	16d-/	.
.	16B-/	.
.	16G/JJ	.
2r	16e-/LL	.
.	16d-/	.
.	16B-/	.
.	16G/JJ	.
.	16e-/LL	.
.	16d-/	.
.	16B-/	.
.	16G/JJ	.
=109	=109	=109
(4.CC/	16en/LL	pp
.	16d-/	.
.	16B-/	.
.	16G/JJ	.
.	16e/LL	.
.	16d-/	.
8DDn/	16B-/	.
.	16G/JJ	.
4.EEn/	16e/LL	.
.	16d-/	.
.	16B-/	.
.	16G/JJ	.
.	16e/LL	.
.	16d-/	.
8FF/)	16B-/	.
.	16G/JJ	.
=110	=110	=110
(4.GG/	16en/LL	.
.	16d-/	.
.	16B-/	.
.	16G/JJ	.
.	16e/LL	.
.	16d-/	.
8AA-/	16B-/	.
.	16G/JJ	.
8BB-/L	16e/LL	.
.	16d-/	.
8AA-/	16B-/	.
.	16G/JJ	.
8GG/	16e/LL	.
.	16d-/	.
8FF/J)	16B-/	.
.	16G/JJ	.
=111	=111	=111
(4.EEn/	16en/LL	.
.	16d-/	.
.	16B-/	.
.	16G/JJ	.
.	16e/LL	.
.	16d-/	.
8FF/	16B-/	.
.	16G/JJ	.
8GG/L	16e/LL	.
.	16d-/	.
8FF/	16B-/	.
.	16G/JJ	.
8EE/	16e/LL	.
.	16d-/	.
8DDn/J	16B-/	.
.	16G/JJ	.
=112	=112	=112
4CC/)	16en/LL	.
.	16d-/	.
.	16B-/	.
.	16G/JJ	.
4r	16e/LL	.
.	16d-/	.
.	16B-/	.
.	16G/JJ	.
2r	16e/LL	.
.	16c/	.
.	16B-/	.
.	16G/JJ	.
.	16e/LL	.
.	16c/	.
.	16B-/	.
.	16G/JJ	.
=113	=113	=113
(4.FFF/	16e-/LL	.
.	16c/	.
.	16An/	.
.	16G-/JJ	.
.	16e-/LL	.
.	16c/	.
8GGG/	16A/	.
.	16G-/JJ	.
4.AAAn/	16e-/LL	.
.	16c/	.
.	16A/	.
.	16G-/JJ	.
.	16e-/LL	.
.	16c/	.
8BBB-/)	16A/	.
.	16G-/JJ	.
=114	=114	=114
(4.CC/	16e-/LL	.
.	16c/	.
.	16A/	.
.	16G-/JJ	.
.	16e-/LL	.
.	16c/	.
8DD-/	16A/	.
.	16G-/JJ	.
8EE-/L	16e-/LL	.
.	16c/	.
8DD-/	16A/	.
.	16G-/JJ	.
8CC/	16e-/LL	.
.	16c/	.
8BBB-/J)	16A/	.
.	16G-/JJ	.
=115	=115	=115
(4.AAA/	16e-/LL	.
.	16c/	.
.	16A/	.
.	16G-/JJ	.
.	16e-/LL	.
.	16c/	.
8BBB-/	16A/	.
.	16G-/JJ	.
8CC/L	16e-/LL	.
.	16c/	.
8BBB-/	16A/	.
.	16G-/JJ	.
8AAA/	16e-/LL	.
.	16c/	.
8GGG/J)	16A/	.
.	16G-/JJ	.
=116	=116	=116
[1FFF	16e-/LL	pp
.	16c/	.
.	16A/	.
.	16G-/JJ	.
.	16e-/LL	.
.	16c/	.
.	16A/	.
.	16G-/JJ	.
.	16e-/LL	.
.	16c/	.
.	16A/	.
.	16F/JJ	.
.	16e-/LL	.
.	16c/	.
.	16A/	.
.	16F/JJ	.
=117	=117	=117
2FFF/]	16e-/LL	.
.	16c/	.
.	16A/	.
.	16F/JJ	.
.	16e-/LL	.
.	16c/	.
.	16A/	.
.	16F/JJ	.
(8CC/L	16e-/LL	.
.	16c/	.
8BBB-/	16A/	.
.	16F/JJ	.
8AAA/	16e-/LL	.
.	16c/	.
8GGG/J)	16A/	.
.	16F/JJ	.
=118	=118	=118
[1FFF	16e-/LL	.
.	16c/	.
.	16A/	.
.	16F/JJ	.
.	16e-/LL	.
.	16c/	.
.	16A/	.
.	16F/JJ	.
.	16e-/LL	.
.	16c/	.
.	16A/	.
.	16F/JJ	.
.	16e-/LL	.
.	16c/	.
.	16A/	.
.	16F/JJ	.
=119	=119	=119
2FFF/]	16e-/LL	.
.	16c/	.
.	16A/	.
.	16F/JJ	.
.	16e-/LL	.
.	16c/	.
.	16A/	.
.	16F/JJ	.
(8CC/L	16e-/LL	.
.	16c/	.
8BBB-/	16A/	.
.	16F/JJ	.
8AAA/	16e-/LL	.
.	16c/	.
8GGG/J)	16A/	.
.	16F/JJ	.
=120	=120	=120
2FFF/	16e-/LL	<
.	16c/	.
.	16A/	.
.	16F/JJ	.
.	16e-/LL	.
.	16c/	.
.	16A/	.
.	16F/JJ	.
(8CC/L	16e-/LL	.
.	16c/	.
8BBB-/	16A/	.
.	16F/JJ	.
8AAA/	16e-/LL	.
.	16c/	.
8GGG/J)	16A/	.
.	16F/JJ	.
=121	=121	=121
2FFF/	16e-/LL	.
.	16c/	.
.	16A/	.
.	16F/JJ	.
.	16e-/LL	.
.	16c/	.
.	16A/	.
.	16F/JJ	.
(8CC/L	16e-/LL	.
.	16c/	.
8BBB-/	16A/	.
.	16F/JJ	.
8AAA/	16e-/LL	.
.	16c/	.
8GGG/J)	16A/	.
.	16F/JJ	.
=122	=122	=122
(4.FFF/	16e-/LL	.
.	16c/	.
.	16A/	.
.	16F/JJ	.
.	16e-/LL	.
.	16c/	.
8GGG/	16A/	.
.	16F/JJ	.
8AAA/L	16e-/LL	.
.	16c/	.
8BBB-/	16A/	.
.	16F/JJ	.
8CC/	16e-/LL	.
.	16c/	.
8DD/J	16A/	.
.	16F/JJ	.
=123	=123	=123
8EE-/L	16e-/LL	.
.	16c/	.
8EEn/	16A/	.
.	16F/JJ	.
8FF/	16e-/LL	.
.	16c/	.
8GG/J	16A/	.
.	16F/JJ	.
8AA/L	16e-/LL	.
.	16c/	.
8BB-/	16A/	.
.	16F/JJ	.
8C/	16e-/LL	.
.	16c/	.
8D/J)	16A/	.
.	16F/JJ	.
=124	=124	=124
*^	*	*
8r	1FF 1E-	1r	>
8En/L	.	.	.
8F/	.	.	.
8G/J	.	.	.
8A/L	.	.	.
8B-/	.	.	.
8c/	.	.	.
8d/J	.	.	.
*v	*v	*	*
=125	=125	=125
2FF/ 2C/	8e-/L	.
.	8en/	.
.	8f/	.
.	8g/J	.
2FF/ 2BB-/	8a/L	.
.	8b-/	.
.	8cc/	.
.	8dd/J	.
=126	=126	=126
[1FF [1AA [1F	[1e- [1cc [1ee-	pp
=127	=127	=127
*	*^	*
2.FF;/] 2.AA;/] 2.F;/]	2.r	2.e-;\] 2.cc;\] 2.ee-;\]	.
4r	(4d/	16B-\LL	p
.	.	16A\	.
.	.	16B-\	.
.	.	16F\JJ	.
=128	=128	=128	=128
4BBB-'/ 4BB-'/	4f'/)	4d\	.
4BBB-'/ 4BB-'/	4d'/	4B-\	.
2r	4r	4r	.
.	4d/	16B-\LL	.
.	.	16A\	.
.	.	16B-\	.
.	.	16F\JJ	.
=129	=129	=129	=129
4BBB-'/ 4BB-'/	4f'/	4d\	.
4BBB-'/ 4BB-'/	4d'/	4B-\	.
2r	4r	4r	.
.	4d'/	16B-\LL	.
.	.	16A\	.
.	.	16B-\	.
.	.	16F\JJ	.
=130	=130	=130	=130
1r	4f'/	16d\LL	<
.	.	16c#\	.
.	.	16d\	.
.	.	16B-\JJ	.
.	4b-'/	16f\LL	.
.	.	16en\	.
.	.	16f\	.
.	.	16d\JJ	.
.	4dd'/	16b-\LL	.
.	.	16a\	.
.	.	16b-\	.
.	.	16f\JJ	.
.	4ff'/	16dd\LL	.
.	.	16cc#\	.
.	.	16dd\	.
.	.	16b-\JJ	.
*	*v	*v	*
=131	=131	=131
16BB-\LL	(2.bb-\	.
16D\	.	.
16F\	.	.
16B-\JJ	.	.
16BB-\LL	.	.
16D\	.	.
16F\	.	.
16B-\JJ	.	.
16BB-\LL	.	.
16D\	.	.
16F\	.	.
16B-\JJ	.	.
16BB-\LL	16aa\LL	.
16D\	16bb-\	.
16F\	16ccc\	.
16B-\JJ	16bb-\JJ	.
=132	=132	=132
16BB-\LL	8aa\L	.
16E-\	.	.
16G\	8gg\	.
16B-\JJ	.	.
16BB-\LL	8ff\	.
16E-\	.	.
16G\	8ee-\J	.
16B-\JJ	.	.
16BB-\LL	8dd\L	.
16E-\	.	.
16F\	8cc\	.
16A\JJ	.	.
16BB-\LL	8gg\	.
16E-\	.	.
16F\	8ff\J)	.
16A\JJ	.	.
=133	=133	=133
16BB-\LL	(4ee-\	.
16D\	.	.
16F\	.	.
16B-\JJ	.	.
16BB-\LL	4dd\)	.
16D\	.	.
16F\	.	.
16B-\JJ	.	.
16BB-\LL	4r	.
16D\	.	.
16F\	.	.
16A-\JJ	.	.
16BB-\LL	(16an\LL	<
16D\	16b-\	.
16F\	16cc\	.
16A-\JJ	16b-\JJ	.
=134	=134	=134
16BB-\LL	8a-/L	.
16E-\	.	.
16G\	8g/	.
16E-\JJ	.	.
16BB-\LL	8f/	.
16E-\	.	.
16G\	8e-/J	.
16E-\JJ	.	.
16BB-\LL	8d/L	.
16C\	.	.
16E-\	8c/	.
16F\JJ	.	.
16BB-\LL	8e-/	.
16C\	.	.
16E-\	8An/J)	.
16F\JJ	.	.
=135	=135	=135
4BB-'/	8B-/L	.
.	(16d/L	f
.	16c/JJ	.
16BB-/LL	16B-/LL	.
16AA/	16A/	.
16BB-/	16B-/	.
&(16GG/JJ&)	16G/JJ)	.
4FF'/	8F'/L	.
.	(16g/L	.
.	16f/JJ	.
16E-/LL	16e-/LL	.
16D/	16d/	.
16E-/	16e-/	.
16C/JJ	16c/JJ	.
=136	=136	=136
&(4BB-'/&)	8B-'/L)	.
.	(16dd/L	.
.	16cc/JJ	.
(16B-\LL	16b-/LL	.
16A\	16a/	.
16B-\	16b-/	.
16G\JJ	16g/JJ)	.
4F'\)	8f'\L	.
.	(16gg\L	.
.	16ff\JJ	.
*clefG2	*	*
(16e-/LL	16ee-\LL	.
16d/	16dd\	.
16e-/	16ee-\	.
16c/JJ)	16cc\JJ)	.
=137	=137	=137
(8B-/L	(8b-\L	.
16c/L	16cc\L	.
16d/JJ	16dd\JJ	.
16e-/LL	16ee-\LL	.
16f/	16ff\	.
16g/	16gg\)	.
16a/JJ)	16aa\JJ	.
(16b-\LL	(16bb-\LL	.
16a\	16aa\	.
16b-\	16bb-\	.
16cc\JJ	16ccc\JJ)	.
(16dd\LL)	(16ddd\LL	.
16cc\	16ccc\	.
16dd\	16ddd\	.
16een\JJ)	16eeen\JJ)	.
=138	=138	=138
*^	*	*
2.r	4ff'\	4fff'\	.
*clefF4	*clefF4	*	*
.	4F'\	4f'/	.
.	4r	2r	f
4D/	16BB-\LL	.	.
.	16AA\	.	.
.	16BB-\	.	.
.	16FF\JJ	.	.
=139	=139	=139	=139
*	*	*^	*
4F/	4D'\	4r	4r	.
4D/	4BB-'\	4f/	16d\LL	f
.	.	.	16c#\	.
.	.	.	16d\	.
.	.	.	16B-\JJ	.
4r	4r	4dd'/	4f\	.
4D/	16BB-\LL	4b-'/	4d\	.
.	16AA\	.	.	.
.	16BB-\	.	.	.
.	16FF\JJ	.	.	.
=140	=140	=140	=140	=140
4F/	4D'\	4r	4r	.
4D/	4BB-'\	4f/	(16d\LL	.
.	.	.	16c#\	.
.	.	.	16d\	.
.	.	.	16B-\JJ)	.
4r	2r	4dd'/	4f\	.
(16D/LL	.	4b-'/	4d\	.
16C#/	.	.	.	.
16D/	.	.	.	.
16BB-/JJ)	.	.	.	.
*v	*v	*	*	*
*	*v	*v	*
=141	=141	=141
16F\LL	1r	.
16En\	.	.
16F\	.	.
16D\JJ	.	.
16B-\LL	.	.
16A\	.	.
16B-\	.	.
16F\JJ	.	.
*clefG2	*	*
16d/LL	.	.
16c#/	.	.
16d/	.	.
16B-/JJ	.	.
16f/LL	.	.
16en/	.	.
16f/	.	.
16d/JJ	.	.
=142	=142	=142
4..a-/	2r	.
16g/	.	.
8.f/L	([2aa-\	>
16e-/k	.	.
8.d/	.	.
&(16c/Jk&)	.	.
*clefF4	*	*
=143	=143	=143
*	*^	*
2Bn\	4aa-/]	2dd\	p
.	[4gg/	.	.
4c\	4gg/]	4ee-\	.
4An\	[4ff/	4cc\	.
=144	=144	=144	=144
4B-\	4ff/]	4dd\	.
4G\	[4ee-/	4bn\	.
4A-\	4ee-/]	4cc\	.
4F#\	[4dd/	4an\	.
=145	=145	=145	=145
4G\	4dd/]	4b-\	.
4En\	[4cc/	4g\	.
4Fn\	4cc/]	4a-\	.
4D\	[4b-/	4f\	.
=146	=146	=146	=146
4E-\	4b-/]	4g\	.
4C\	4an/	4e-\	.
&(4D\&)	4b-/	4d\	.
4En\	4d/)	4B-\	.
*	*v	*v	*
=147	=147	=147
8FF\L	8A/ 8c/L	.
8F\	16f/L	.
.	16A/ 16c/JJ	.
8F\	16f/LL	.
.	16A/ 16c/	.
8F\J	16g/	.
.	16A/ 16c/JJ	.
8F\L	16a/LL	.
.	16c/ 16e-/	.
8F\	16f/	.
.	16c/ 16e-/JJ	.
8F\	16g/LL	.
.	16c/ 16e-/	.
8F\J	16a/	.
.	16c/ 16e-/JJ	.
=148	=148	=148
8F\L	16b-/LL	.
.	16B-/ 16d-/	.
8F\	16b-/	.
.	16B-/ 16d-/JJ	.
8F\	16b-/LL	.
.	16B-/ 16d-/	.
8F\J	16a-/	.
.	16B-/ 16d-/JJ	.
8F\L	16g/LL	.
.	16B-/ 16d-/	.
8F\	16f/	.
.	16B-/ 16d-/JJ	.
8F\	16en/LL	.
.	16B-/ 16d-/	.
8F\J	16g/	.
.	16B-/ 16d-/JJ	.
=149	=149	=149
8FF\ 8F\	8A/ 8c/ 8f/	.
8f\L	16ff\LL	.
.	16a\ 16cc\JJ	.
8f\	16ff\LL	.
.	16a\ 16cc\	.
8f\J	16gg\	.
.	16a\ 16cc\JJ	.
8f\L	16aa\LL	.
.	16cc\ 16ee-\	.
8f\	16ff\	.
.	16cc\ 16ee-\JJ	.
8f\	16gg\LL	.
.	16cc\ 16ee-\	.
8f\J	16aa\	.
.	16cc\ 16ee-\JJ	.
=150	=150	=150
8f\L	16bb-\LL	.
.	16b-\ 16dd-\	.
8f\	16bb-\	.
.	16b-\ 16dd-\JJ	.
8f\	16bb-\LL	.
.	16b-\ 16dd-\	.
8f\J	16aa-\	.
.	16b-\ 16dd-\JJ	.
8f\L	16gg\LL	.
.	16b-\ 16dd-\	.
8f\	16ff\	.
.	16b-\ 16dd-\JJ	.
8f\	16een\LL	.
.	16b-\ 16dd-\	.
8f\J	16gg\	.
.	16b-\ 16dd-\JJ	.
=151	=151	=151
8F\L	16ff\LL	.
.	16a\ 16cc\	.
8f\	16ff\	.
.	16a\ 16cc\JJ	.
8f\	16een\LL	.
.	16b-\ 16dd-\	.
8f\J	16gg\	.
.	16b-\ 16dd-\JJ	.
8F\L	16ff\LL	.
.	16a\ 16cc\	.
8f\	16ff\	.
.	16a\ 16cc\JJ	.
8f\	16ee\LL	.
.	16b-\ 16dd-\	.
8f\J	16gg\	.
.	16b-\ 16dd-\JJ	.
=152	=152	=152
4F\	16a\ 16cc\ 16ff\	.
.	16f/LL	.
.	16g/	.
.	16a/JJ	.
4r	16b-\LL	.
.	16cc\	.
.	16ddn\	.
.	16een\JJ	.
2r	16ff\LL	.
.	16ee\	.
.	16ff\	.
.	16ee\JJ	.
.	16ff\LL	.
.	16ee\	.
.	16ff\	.
.	16ee\JJ	.
*clefG2	*	*
=153	=153	=153
16r	2dd\ (2ff\	pp
16B-/LL	.	.
16c/	.	.
16d/JJ	.	.
16e-/LL	.	.
16f/	.	.
16g/	.	.
16a/JJ	.	.
16b-/LL	4dd\	.
16a/	.	.
16b-/	.	.
16a/JJ	.	.
16b-/LL	4bb-\	.
16a/	.	.
16b-/	.	.
16a/JJ	.	.
=154	=154	=154
16b-/LL	4dd\ 4ff\	.
16a/	.	.
16b-/	.	.
16a/JJ	.	.
16b-/LL	4bb-\ 4ddd\	.
16a/	.	.
16b-/	.	.
16a/JJ	.	.
16b-/LL	4dd\ 4ff\	.
16a/	.	.
16b-/	.	.
16a/JJ	.	.
16b-/LL	4ddd\ 4fff\)	.
16a/	.	.
16b-/	.	.
16a/JJ	.	.
=155	=155	=155
16b-/LL	2dd\ (2ff\	.
16B-/	.	.
16c/	.	.
16d/JJ	.	.
16e-/LL	.	.
16f/	.	.
16g/	.	.
16a/JJ	.	.
16b-/LL	4dd\	.
16a/	.	.
16b-/	.	.
16a/JJ	.	.
16b-/LL	4bb-\	.
16a/	.	.
16b-/	.	.
16a/JJ	.	.
=156	=156	=156
16b-/LL	4dd\ 4ff\	.
16a/	.	.
16b-/	.	.
16a/JJ	.	.
16b-/LL	4bb-\ 4ddd\	.
16a/	.	.
16b-/	.	.
16a/JJ	.	.
16b-/LL	4dd\ 4ff\	.
16a/	.	.
16b-/	.	.
16a/JJ	.	.
16b-/LL	4ddd\ 4fff\)	.
16a-/	.	.
16b-/	.	.
16a-/JJ	.	.
=157	=157	=157
*	*^	*
16f#/LL	2gg/ 2bbn/	2dd\ 2ff\	.
16g/	.	.	.
16f#/	.	.	.
16g/JJ	.	.	.
16en/LL	.	.	.
16fn/	.	.	.
16e/	.	.	.
16f/JJ	.	.	.
*clefF4	*	*	*
16c#\LL	2r	2r	.
16d\	.	.	.
16c#\	.	.	.
16d\JJ	.	.	.
16A#\LL	.	.	.
16Bn\	.	.	.
16A#\	.	.	.
16B\JJ	.	.	.
*	*v	*v	*
=158	=158	=158
16F#\LL	4r	.
16G\	.	.
16F#\	.	.
16G\JJ	.	.
16En\LL	(4bbn\	<
16Fn\	.	.
16E\	.	.
16F\JJ	.	.
16C#/LL	4ddd\	.
16D/	.	.
16C#/	.	.
16D/JJ	.	.
16AA#/LL	[4fff\)	.
16BBn/	.	.
16AA#/	.	.
16BB/JJ	.	.
=159	=159	=159
*	*^	*
16FF#/LL	(4fff/]	2bbn\	.
16GG/	.	.	.
16FF#/	.	.	.
16GG/JJ	.	.	.
16FF#/LL	[4eee-/	.	.
16GG/	.	.	.
16FF#/	.	.	.
16GG/JJ	.	.	.
16GG/LL	[2ccc/ 2eee-/_	4ccc\	.
16AA-/	.	.	.
16GG/	.	.	.
16AA-/JJ	.	.	.
16GG#/LL	.	4gg-\	.
16AAn/	.	.	.
16GG#/	.	.	.
16AA/JJ	.	.	.
=160	=160	=160	=160
16AA/LL	4ccc/] 4eee-/]	2ff\	f
16BB-/	.	.	.
16AA/	.	.	.
16BB-/JJ	.	.	.
16AA/LL	4bb-/ 4ddd/	.	.
16BB-/	.	.	.
16AA/	.	.	.
16BB-/JJ	.	.	.
16DD/LL	4ggn/ 4ccc/	4ee-\	.
16EE-/	.	.	.
16DD/	.	.	.
16EE-/JJ	.	.	.
16EEn/LL	4aa/	4cc\ 4ee-\	.
16FF/	.	.	.
16EE/	.	.	.
16FF/JJ	.	.	.
=161	=161	=161	=161
4BBB-/	4bb-/)	4b-\ 4dd\	.
4r	4r	4r	.
2B-\ 2d\	(2dd/	2b-\	.
=162	=162	=162	=162
4G\ 4B-\	4b-/	4g\	.
4E-\ &(4G\&)	4g/)	4e-\	.
4.c\ 4.e-\	(4.ee-/	4.cc\	.
8B-\ 8d\	8dd/	8b-\	.
=163	=163	=163	=163
4A\ 4c\	4cc/	4a\	.
4F\ &(4A\&)	4a/	4f\	.
2d\ 2f\	(2ff/)	2dd\	.
=164	=164	=164	=164
4B-\ 4d\	4dd/	4b-\	.
4G\ &(4B-\&)	4b-/)	4g\	.
*clefG2	*	*	*
4.e-/ 4.g/	2r	4.ee-\ (4.gg\	.
8d/ 8f/	.	8dd\ 8ff\	.
*	*v	*v	*
=165	=165	=165
4c/ 4e-/	4cc\ 4ee-\	.
&(4A/&) 4c/	4a\ 4cc\)	.
(4.e-/ 4.cc/	4.ee-\ (4.ccc\	.
8d/) 8b-/	8dd\ 8bb-\)	.
=166	=166	=166
4.c/ 4.a/	4.cc\ 4.aa\	.
&(8B-/&) 8g/	8b-\ 8gg\	.
4A/ 4f/	4a\ (4ff\	.
*clefF4	*	*
4G\ 4B-\	4e-/ 4ee-/	.
=167	=167	=167
4F#\ 4A\	4d/ 4dd/	<
4D\ 4A\	4f#/ 4cc/	.
4E-\ 4G\	4g/ 4b-/	.
4En\ &(4B-\&)	4c/ 4g/)	.
=168	=168	=168
2F\	4r	.
.	4B-/ 4d/ 4f/	pp
2FF/	4r	.
.	4A/ 4c/ 4f/	.
=169	=169	=169
2BBB-/	4r	.
.	4F/ 4B-/ 4d/	.
4.B-\ 4.d\	8r	.
.	4b-\ 4dd\	.
8B-\ 8d\	8b-\ 8dd\	.
=170	=170	=170
8G\ 8B-\	8r	.
8r	8g/ 8b-/	.
8E-\ 8G\	8r	.
8r	8e-/ 8g/	.
4.c\ (4.e-\	8r	.
.	4cc\ (4ee-\	.
8B-\ 8d\	8b-\ 8dd\)	.
=171	=171	=171
8A\ 8c\)	8r	.
8r	8a\ 8cc\	.
8F\ 8A\	8r	.
8r	8f/ 8a/	.
4.d\ 4.f\	8r	.
.	4dd\ 4ff\	.
8d\ 8f\	8dd\ 8ff\	.
=172	=172	=172
8B-\ 8d\	8r	.
8r	8b-\ 8dd\	.
8G\ 8B-\	8r	.
8r	8g/ 8b-/	.
*clefG2	*	*
(4.e-/ 4.g/	8r	.
.	4ee-\ (4gg\	.
8d/ 8f/	8dd\ 8ff\)	.
=173	=173	=173
8c/) 8e-/	8r	.
8r	8cc\ 8ee-\	.
8A/ 8c/	8r	.
8r	8a\ 8cc\	.
(4.e-/ 4.cc/	8r	.
.	4ee-\ 4ccc\	mf
8d/) 8b-/	8dd\ &(8bb-\&)	.
=174	=174	=174
(4.c/ 4.a/	8r	.
.	4cc\ (4aa\	.
8B-/) 8g/	8b-\ 8gg\)	.
*clefF4	*	*
8A\ 8f\	8r	.
8r	8a\ 8ff\	.
8G\ 8B-\	8r	.
8r	8e-\ 8ee-\	.
=175	=175	=175
1F# 1A 1c	(16dd/LL	<
.	16d/	.
.	16f#/	.
.	16a/JJ	.
.	16dd\LL	.
.	16ff#\	.
.	16aa\	.
.	16ccc#\JJ	.
.	16ddd\LL	.
.	16ccc#\	.
.	16ddd\	.
.	16ccc#\JJ	.
.	16ddd\LL	.
.	16aa\	.
.	16ff#\	.
.	16dd\JJ)	.
=176	=176	=176
1G 1B-	16r	.
.	(16d/LL	.
.	16g/	.
.	16b-/JJ	.
.	16dd\LL	.
.	16gg\	.
.	16bb-\	.
.	16ccc#\JJ	.
.	16ddd\LL	.
.	16ccc#\	.
.	16ddd\	.
.	16ccc#\JJ	.
.	16ddd\LL	.
.	16bb-\	.
.	16gg\	.
.	16dd\JJ)	.
=177	=177	=177
1En 1G	16r	.
.	(16d-/LL	.
.	16en/	.
.	16g/JJ	.
.	16b-\LL	.
.	16dd-\	.
.	16een\	.
.	16gg\JJ	.
.	16bb-\LL	.
.	16gg\	.
.	16ddd-\	.
.	16bb-\JJ	.
.	16gg\LL	.
.	16ee\	.
.	16dd-\	.
.	16b-\JJ)	.
=178	=178	=178
[2E-\ [2G-\	16r	.
.	(16A/LL	.
.	16c/	.
.	16e-/JJ	.
.	16g-\LL	.
.	16a\	.
.	16cc\	.
.	16ee-\JJ	.
8E-\] 8G-\L]	16gg-\LL	.
.	16aa\)	.
8E-'\ 8F'\ 8c'\	16a\	.
.	16aa\JJ	.
8E-'\ 8F'\ 8c'\	16a\LL	.
.	16aa\	.
8E-'\ 8F'\ 8c'\J	16a\	.
.	16aa\JJ	.
=179	=179	=179
*^	*	*
4D\ 4F\ 4B-\	4.r	16b-\LL	f
.	.	16bb-\	.
.	.	16a\	.
.	.	16aa\JJ	.
8r	.	16b-\LL	.
.	.	16bb-\	.
8AA'\	8F/	16e-\	.
.	.	16ee-\JJ	.
8BB-'\L	8F/L	16d\LL	.
.	.	16dd\	.
8E-'\	8F/	16a\	.
.	.	16aa\JJ	.
8D'\	8F/	16b-\LL	.
.	.	16bb-\	.
8AA'\J	8F/J	16e-\	.
.	.	16ee-\JJ	.
=180	=180	=180	=180
8F/L	8BB-'\L	16d\LL	.
.	.	16dd\	.
8F/	8E-'\	16a\	.
.	.	16aa\JJ	.
8F/	8D'\	16b-\LL	.
.	.	16bb-\	.
8F/J	8AA'\J	16e-\	.
.	.	16ee-\JJ	.
8F/L	8BB-'\L	16d\LL	.
.	.	16dd\	.
8F/	8E-'\	16a\	.
.	.	16aa\JJ	.
8F/	8D'\	16b-\LL	.
.	.	16bb-\	.
8F/J	8AA'\J	16e-\	.
.	.	16ee-\JJ	.
*v	*v	*	*
=181	=181	=181
2BB-/	16d\LL	.
.	16dd\	.
.	16a\	.
.	16aa\JJ	.
.	16b-\LL	.
.	16bb-\	.
.	16a\	.
.	16aa\JJ	.
2GG/	16g\LL	.
.	16gg\	.
.	16f\	.
.	16ff\JJ	.
.	16e-\LL	.
.	16ee-\	.
.	16d\	.
.	16dd\JJ	.
=182	=182	=182
2EE-/	16c/LL	.
.	16cc/	.
.	16B-/	.
.	16b-/JJ	.
.	16A/LL	.
.	16a/	.
.	16G/	.
.	16g/JJ	.
*	*clefF4	*clefF4
2FF/	16F\LL	.
.	16f\	.
.	16E-\	.
.	16e-\JJ	.
.	16D\LL	.
.	16d\	.
.	16C\	.
.	16c\JJ	.
=183	=183	=183
8BBB-'/L	8BB-'\ 8B-'\L	.
8E-/	(16A\L	p
.	16F\JJ	.
8D/	16B-\LL	.
.	16F\	.
8AA/J	16e-\	.
.	16F\JJ	.
8BB-/L	16d\LL	.
.	16F\	.
8E-/	16A\	.
.	16F\JJ	.
8D/	16B-\LL	.
.	16F\	.
8AA/J	16e-\	.
.	16F\JJ)	.
=184	=184	=184
8BB-/L	(16d\LL	<
.	16F\	.
8E-/	16A\	.
.	16F\JJ	.
8D/	16B-\LL	.
.	16F\	.
8AA/J	16e-\	.
.	16F\JJ	.
8BB-/L	8d\L	.
8C/	16F#\L	.
.	16f#\JJ	.
*	*clefG2	*clefG2
8BB-/	16G/LL	.
.	16g/	.
8AA/J	16A/	.
.	16a/JJ)	.
=185	=185	=185
8GG/L	16B-/LL	.
.	16b-/	.
8FFn/	16Bn/	.
.	16bn/JJ	.
8EE-/	16c/LL	.
.	16cc/	.
8DD/J	16d/	.
.	16dd/JJ	ff
[2CC/	16e-\LL	.
.	16ee-\	.
.	16f\	.
.	16ff\JJ	.
.	16g\LL	.
.	16gg\	.
.	16f\	.
.	16ff\JJ	.
=186	=186	=186
2CC/]	16e-/LL	.
.	16ee-/	.
.	16d/	.
.	16dd/JJ	.
.	16c/LL	.
.	16cc/	.
.	16B-/	.
.	16b-/JJ	.
2FFF/ 2FF/	16A/LL	.
.	16a/	.
.	16G/	.
.	16g/JJ	.
.	16F/LL	.
.	16f/	.
.	16A/	.
.	16a/JJ	.
=187	=187	=187
*	*^	*
16BBB-/LL	4B-/ 4b-/	2r	.
16BB-/	.	.	.
16BBB-/	.	.	.
16BB-/JJ	.	.	.
16BBB-/LL	4r	.	.
16BB-/	.	.	.
16BBB-/	.	.	.
16BB-/JJ	.	.	.
16BBB-/LL	2d/ 2f/	(4.d\	p
16BB-/	.	.	.
16BBB-/	.	.	.
16AA/JJ	.	.	.
16BBB-/LL	.	.	.
16BB-/	.	.	.
16BBB-/	.	8B-\)	.
16BB-/JJ	.	.	.
=188	=188	=188	=188
16BBB-/LL	2e-/ 2g-/	(4.e-\	.
16BB-/	.	.	.
16BBB-/	.	.	.
16BB-/JJ	.	.	.
16BBB-/LL	.	.	.
16BB-/	.	.	.
16BBB-/	.	8d-\	.
16AA/JJ	.	.	.
16BBB-/LL	4e-/ 4g-/	8c-\L	.
16BB-/	.	.	.
16BBB-/	.	8B-\	.
16BB-/JJ	.	.	.
16BBB-/LL	4e-/ 4g-/	8c-\	.
16BB-/	.	.	.
16BBB-/	.	8An\J	.
16BB-/JJ	.	.	.
=189	=189	=189	=189
16BBB-/LL	4.B-/) 4.d/ 4.f/	2r	.
16BB-/	.	.	.
16BBB-/	.	.	.
16BB-/JJ	.	.	.
16BBB-/LL	.	.	.
16BB-/	.	.	.
16BBB-/	8r	.	.
16BB-/JJ	.	.	.
16BBB-/LL	(4.dd/	2d\ 2f\	.
16BB-/	.	.	.
16BBB-/	.	.	.
16BB-/JJ	.	.	.
16BBB-/LL	.	.	.
16BB-/	.	.	.
16BBB-/	8b-/)	.	.
16BB-/JJ	.	.	.
=190	=190	=190	=190
16BBB-/LL	(4.ee-/	2e-\ 2g-\	.
16BB-/	.	.	.
16BBB-/	.	.	.
16BB-/JJ	.	.	.
16BBB-/LL	.	.	.
16BB-/	.	.	.
16BBB-/	8dd-/	.	.
16BB-/JJ	.	.	.
16BBB-/LL	8cc-/L	4e-\ 4g-\	>
16BB-/	.	.	.
16BBB-/	8b-/	.	.
16BB-/JJ	.	.	.
16BBB-/LL	8cc-/	4e-\ 4g-\	.
16BB-/	.	.	.
16BBB-/	8a/J)	.	.
16BB-/JJ	.	.	.
=191	=191	=191	=191
16BBB-/LL	4.b-/	4.d\ 4.f\	.
16BB-/	.	.	.
16BBB-/	.	.	.
16BB-/JJ	.	.	.
16BBB-/LL	.	.	.
16BB-/	.	.	.
16BBB-/	8r	8r	.
16BB-/JJ	.	.	.
16BBB-/LL	(8ccn/L	4e-\ 4g-\	.
16BB-/	.	.	.
16BBB-/	8b-/	.	.
16BB-/JJ	.	.	.
16BBB-/LL	8cc/	4e-\ 4g-\	.
16BB-/	.	.	.
16BBB-/	8a/J)	.	.
16BB-/JJ	.	.	.
=192	=192	=192	=192
16BBB-/LL	4.b-/	4.d\ 4.f\	.
16BB-/	.	.	.
16BBB-/	.	.	.
16BB-/JJ	.	.	.
16BBB-/LL	.	.	.
16AA/	.	.	.
16BBB-/	8r	8r	.
16BB-/JJ	.	.	.
16BBB-/LL	(8cc-/L	4e-\ 4g\	pp
16BB-/	.	.	.
16BBB-/	8b-/	.	.
16BB-/JJ	.	.	.
16BBB-/LL	8cc-/	4e-\ 4g\	.
16BB-/	.	.	.
16BBB-/	8a/J)	.	.
16BB-/JJ	.	.	.
*	*v	*v	*
=193	=193	=193
4.BBB-/ 4.BB-/	4.B-/ 4.b-/	ff
8CC'/ 8C'/	8cn'/ 8ccn'/	.
4.DD/ 4.D/	4.d/ 4.dd/	.
8EE-'/ 8E-'/	8e-'/ 8ee-'/	.
=194	=194	=194
4.FF/ 4.F/	4.f\ 4.ff\	.
8GG'\ 8G'\	8g'\ 8gg'\	.
8AA'\ 8A'\L	8a'\ 8aa'\L	.
8BB-'\ 8B-'\	8b-'\ 8bb-'\	.
8C'\ 8c'\	8cc'\ 8ccc'\	.
8D'\ 8d'\J	8dd'\ 8ddd'\J	.
=195	=195	=195
4.E-\ 4.e-\	4.ee-\ 4.eee-\	.
8D'\ 8d'\	8dd'\ 8ddd'\	.
4.C\ 4.c\	4.cc\ 4.ccc\	.
8BB-'\ 8B-'\	8b-'\ 8bb-'\	.
=196	=196	=196
4.AA/ 4.A/	4.a\ 4.aa\	.
8GG'/ 8G'/	8g'\ 8gg'\	.
8FF'/ 8F'/L	8f'\ 8ff'\L	.
8EE-'/ 8E-'/	8e-'\ 8ee-'\	.
8DD'/ 8D'/	8d'\ 8dd'\	.
8CC'/ 8C'/J	8c'\ 8cc'\J	.
=197	=197	=197
4BBB-'/ 4BB-'/	4B-'/ 4b-'/	.
4F'\ 4c'\ 4e-'\	(16a/LL	p
.	16g#/	.
.	16a/	.
.	16f/JJ	.
4B-'\ 4d'\	4b-'/)	.
*clefG2	*	*
4f'\ 4cc'\ 4ee-'\	(16aa\LL	.
.	16gg#\	.
.	16aa\	.
.	16ff\JJ	.
=198	=198	=198
4b-'\ 4dd'\	4bb-'\)	.
4r	4r	.
*clefF4	*	*
4FF'/ 4F'/	4a'\ 4cc'\ 4ee-'\ 4ff'\ 4aa'\	ff
4r	4r	.
=199	=199	=199
4BBB-'/ 4BB-'/	4b-'\ 4dd'\ 4ff'\ 4bb-'\	.
4r	4r	.
4r	4r	.
==	==	==
*-	*-	*-
!!!ENC: Craig Stuart Sapp
!!!END: 2008/11/05/
